X:1
T:Brest, 87.87.47
T:Brest, 87.87.47
T:Lowell Mason, 1841
T:Public Domain Courtesy of the Cyber Hymnal™
C:Lowell Mason, 1841
Z:Public Domain
Z:Courtesy of the Cyber Hymnal™
%%score 1 ( 2 3 )
L:1/8
Q:1/4=115
M:4/4
K:D
V:1 treble 
V:2 bass 
V:3 bass 
V:1
 [DF]3 [DF] [DF]2 [DF]2 | [DF]2 [DF]2 [DA]2 [DF]2 | [CE]3 [EA] [FA]2 [DF]2 | [CE]2 [D^G]2 [CA]4 | %4
 [EB]3 [EB] [EB]2 [EB]2 | [Ec]2 [CA]2 [Dd]2 [Fd]2 | [Ec]3 [^Ge] [Ae]2 [EA]2 | [FA]2 [E^G]2 [EA]4 | %8
 [DF]3 [DF] [DF]2 [DF]2 | [DF]3 [DF] [DF]2 [DF]2 | [EA]4 [CE]4 | [DF]8 |] %12
V:2
 [D,A,]3 [D,A,] [D,A,]2 [D,A,]2 | [D,A,]2 [D,A,]2 [F,D]2 [D,A,]2 | %2
 [A,,A,]3 [C,A,] [D,A,]2 [D,A,]2 | [E,A,]2 [E,B,]2 [A,,A,]4 | [E,^G,]3 [E,G,] [E,G,]2 [E,G,]2 | %5
 A,2 [G,A,]2 [F,A,]2 [D,A,]2 | A,3 [E,B,] [A,C]2 [C,E]2 | [D,D]2 [E,B,]2 [A,,C]4 | %8
 [D,A,]3 [D,A,] [D,A,]2 [D,A,]2 | [B,,B,]3 [B,,B,] [B,,B,]2 [B,,B,]2 | [A,,C]4 [A,,A,]4 | %11
 [D,A,]8 |] %12
V:3
 x8 | x8 | x8 | x8 | x8 | A,2 x6 | A,3 x5 | x8 | x8 | x8 | x8 | x8 |] %12

